Obsidian-SemiLight/actions/22s/timeline-lift.svg

<svg viewBox="0 0 22 22" xmlns="http://www.w3.org/2000/svg"><path d="m3 11v4h4v-4zm12 0v4h4v-4z" fill="#4d4d4d"/><path d="m6 10h1v1h-1zm9 0h1v1h-1z" fill="#4d4d4d"/><path d="m9.207 10.5-.707.707 1.793 1.793-1.793 1.793.707.707 1.793-1.793 1.793 1.793.707-.707-1.793-1.793 1.793-1.793-.707-.707-1.793 1.793z" fill="#d24d57"/></svg>

<svg xmlns="http://www.w3.org/2000/svg" viewBox="0 0 22 22">
  <defs id="defs3051">
    <style type="text/css" id="current-color-scheme">
      .ColorScheme-Text {
        color:#4d4d4d;
      }
      </style>
  </defs>
 <path 
     style="fill:currentColor;fill-opacity:1;stroke:none" 
     d="m 3,11 0,4 4,0 0,-4 -4,0 z m 12,0 0,4 4,0 0,-4 -4,0 z"
	 class="ColorScheme-Text"
     />
 <path 
     style="fill:currentColor;fill-opacity:1;stroke:none" 
     d="M6 10H7V11H6zM15 10H16V11H15z"
     class="ColorScheme-Text"
     />
 <path 
     style="fill:#d24d57"
     d="M 9.207,10.5 8.5,11.207 10.293,13 8.5,14.793 9.207,15.5 11,13.707 12.793,15.5 13.5,14.793 11.707,13 13.5,11.207 12.793,10.5 11,12.293 9.207,10.5 Z"
	 />
</svg>
